.local/share/icons/Gruvbox-Plus-Dark/panel/22/pcloud-pause.svg

<svg xmlns="http://www.w3.org/2000/svg" width="22" height="22" version="1.1">
 <defs>
  <style id="current-color-scheme" type="text/css">
   .ColorScheme-Text { color:#ebdbb2; } .ColorScheme-Highlight { color:#458588; }
  </style>
 </defs>
 <path style="fill:currentColor;opacity:0.3" class="ColorScheme-Text" d="M 11.5 4 A 6.5 6.5 0 0 0 5.4902344 8.03125 A 5 5 0 0 0 1 13 A 5 5 0 0 0 6 18 L 12.423828 18 A 5 5 0 0 1 12 16 A 5 5 0 0 1 12.113281 14.953125 A 4.5 4.5 0 0 1 11.5 15 A 4.5 4.5 0 0 1 7 10.5 A 4.5 4.5 0 0 1 11.5 6 A 4.5 4.5 0 0 1 16 10.5 A 4.5 4.5 0 0 1 15.951172 11.117188 A 5 5 0 0 1 17 11 A 5 5 0 0 1 19.490234 11.669922 A 3 3 0 0 0 20 10 A 3 3 0 0 0 17 7 A 3 3 0 0 0 16.976562 7 A 6.5 6.5 0 0 0 11.5 4 z M 11.5 7 A 3.5 3.5 0 0 0 8 10.5 A 3.5 3.5 0 0 0 11.5 14 A 3.5 3.5 0 0 0 12.490234 13.855469 A 5 5 0 0 1 14.855469 11.490234 A 3.5 3.5 0 0 0 15 10.5 A 3.5 3.5 0 0 0 11.5 7 z M 10 8 L 11 8 L 12.5 8 A 1.5 1.5 0 0 1 14 9.5 A 1.5 1.5 0 0 1 12.5 11 L 11 11 L 11 13 L 10 13 L 10 11 L 10 8 z M 11 9 L 11 10 L 12.5 10 A 0.5 0.5 0 0 0 13 9.5 A 0.5 0.5 0 0 0 12.5 9 L 11 9 z"/>
 <path style="fill:currentColor" class="ColorScheme-Text" d="M 17.279297,12.007812 C 16.510764,11.953491 15.717412,12.120931 15,12.535156 13.0868,13.639756 12.432609,16.0868 13.537109,18 14.641609,19.9131 17.0869,20.567491 19,19.462891 20.9132,18.358291 21.569344,15.9132 20.464844,14 19.774531,12.804312 18.560186,12.098349 17.279297,12.007812 Z M 15,14 h 1 v 4 h -1 z m 3,0 h 1 v 4 h -1 z"/>
</svg>

<svg width="22" height="22" version="1.1" xmlns="http://www.w3.org/2000/svg">
  <defs>
    <style id="current-color-scheme" type="text/css">.ColorScheme-Text { color:#ebdbb2; } .ColorScheme-Highlight { color:#458588; } .ColorScheme-NeutralText { color:#fe8019; } .ColorScheme-PositiveText { color:#689d6a; } .ColorScheme-NegativeText { color:#fb4934; }</style>
  </defs>
  <path class="ColorScheme-Text" d="m11.5 4a6.5 6.5 0 0 0-6.01 4.031 5 5 0 0 0-4.49 4.969 5 5 0 0 0 5 5h6.424a5 5 0 0 1-0.4238-2 5 5 0 0 1 0.1133-1.047 4.5 4.5 0 0 1-0.6133 0.04688 4.5 4.5 0 0 1-4.5-4.5 4.5 4.5 0 0 1 4.5-4.5 4.5 4.5 0 0 1 4.5 4.5 4.5 4.5 0 0 1-0.04883 0.6172 5 5 0 0 1 1.049-0.1172 5 5 0 0 1 2.49 0.6699 3 3 0 0 0 0.5098-1.67 3 3 0 0 0-3-3 3 3 0 0 0-0.02344 0 6.5 6.5 0 0 0-5.477-3zm0 3a3.5 3.5 0 0 0-3.5 3.5 3.5 3.5 0 0 0 3.5 3.5 3.5 3.5 0 0 0 0.9902-0.1445 5 5 0 0 1 2.365-2.365 3.5 3.5 0 0 0 0.1445-0.9902 3.5 3.5 0 0 0-3.5-3.5zm-1.5 1h1 1.5a1.5 1.5 0 0 1 1.5 1.5 1.5 1.5 0 0 1-1.5 1.5h-1.5v2h-1v-2-3zm1 1v1h1.5a0.5 0.5 0 0 0 0.5-0.5 0.5 0.5 0 0 0-0.5-0.5h-1.5z" fill="currentColor" opacity=".3"/>
  <path class="ColorScheme-Text" d="m17.28 12.01c-0.7685-0.05432-1.562 0.1131-2.279 0.5273-1.913 1.105-2.567 3.552-1.463 5.465 1.104 1.913 3.55 2.567 5.463 1.463 1.913-1.105 2.569-3.55 1.465-5.463-0.6903-1.196-1.905-1.902-3.186-1.992zm-2.279 1.992h1v4h-1zm3 0h1v4h-1z" fill="currentColor"/>
</svg>
